X: 37635
T: Snow March
R: polka
M: 2/4
K: Gmajor
M:4/4
P:A
Bc|:"G"d2 g2 d2 g2|"Em(G)"dcBA G2 AB|"C"c2 E2 "Am"A2 G2|"D"FGAF D2 Bc|
"G"d3 g d2 g2|"Em(G)"dcBA G2 AB|"Am"c2 E2 "D"AdAB|1 "C(G)"G4 G2 Bc:|2 "G"G4 G2 FG||
P:B
|:"D"A2 D2 "G"B2 D2|"C"cBAG "Am"A2 "D"(d2|d)cBA G2 D2|"C"EDEG "D"E2 D2|
"D"A3 D "G"B2 D2|"C"cBAG "Am"A2 "D"d2|"D"cBAG AdAB|1 "G"G4 G2 FG:|2 "G"G4 G2 "NC"z2||

